Adwaita++-Dark/actions/22/jog-dial.svg

<svg fill="none" height="22" viewBox="0 0 22 22" width="22" xmlns="http://www.w3.org/2000/svg">
  <g clip-rule="evenodd" fill="#e6ddff" fill-rule="evenodd">
    <path d="m8.80569 5.10685.17798-2.10685h4.03713l.1735 2.11354c.6755.24496 1.304.60194 1.8586 1.05566l1.9285-.89943 2.0186 3.4638-1.7505 1.20296c.0612.35167.0921.70777.0924 1.06457-.002.3555-.0344.7101-.0969 1.0601l1.755 1.2075-2.0186 3.4638-1.933-.9017c-.5528.4557-1.1797.8149-1.8541 1.0624l-.178 2.1068h-4.03714l-.17347-2.1135c-.67548-.245-1.30398-.602-1.85863-1.0557l-1.92847.8994-2.01859-3.4638 1.75049-1.2029c-.06124-.3517-.09214-.7078-.09237-1.0646.00198-.3555.03438-.7101.09688-1.06014l-1.755-1.20742 2.01859-3.4638 1.93297.90166c.5528-.45566 1.17977-.8149 1.85413-1.06235zm2.19431 10.89315c2.7614 0 5-2.2386 5-5 0-2.76142-2.2386-5-5-5-2.76142 0-5 2.23858-5 5 0 2.7614 2.23858 5 5 5z"/>
    <path d="m11 15c2.2091 0 4-1.7909 4-4 0-2.20914-1.7909-4-4-4-2.20914 0-4 1.79086-4 4 0 2.2091 1.79086 4 4 4zm-1.42857-4.3571c.59177 0 1.07147-.4797 1.07147-1.07147 0-.59174-.4797-1.07143-1.07147-1.07143-.59173 0-1.07143.47969-1.07143 1.07143 0 .59177.4797 1.07147 1.07143 1.07147zm0 2.8571c.59177 0 1.07147-.4797 1.07147-1.0714 0-.5918-.4797-1.0715-1.07147-1.0715-.59173 0-1.07143.4797-1.07143 1.0715 0 .5917.4797 1.0714 1.07143 1.0714zm3.92857-2.5c0 .5917-.4797 1.0714-1.0714 1.0714-.5918 0-1.0715-.4797-1.0715-1.0714s.4797-1.07143 1.0715-1.07143c.5917 0 1.0714.47973 1.0714 1.07143z"/>
  </g>
</svg>

<svg xmlns="http://www.w3.org/2000/svg" fill="none" width="22" height="22" viewBox="0 0 22 22">
 <path fill="#E6DDFF" fill-rule="evenodd" d="M8.80569 5.10685L8.98367 3H13.0208L13.1943 5.11354C13.8698 5.3585 14.4983 5.71548 15.0529 6.1692L16.9814 5.26977L19 8.73357L17.2495 9.93653C17.3107 10.2882 17.3416 10.6443 17.3419 11.0011C17.3399 11.3566 17.3075 11.7112 17.245 12.0612L19 13.2687L16.9814 16.7325L15.0484 15.8308C14.4956 16.2865 13.8687 16.6457 13.1943 16.8932L13.0163 19H8.97916L8.80569 16.8865C8.13021 16.6415 7.50171 16.2845 6.94706 15.8308L5.01859 16.7302L3 13.2664L4.75049 12.0635C4.68925 11.7118 4.65835 11.3557 4.65812 10.9989C4.6601 10.6434 4.6925 10.2888 4.755 9.93876L3 8.73134L5.01859 5.26754L6.95156 6.1692C7.50436 5.71354 8.13133 5.3543 8.80569 5.10685ZM11 16C13.7614 16 16 13.7614 16 11C16 8.23858 13.7614 6 11 6C8.23858 6 6 8.23858 6 11C6 13.7614 8.23858 16 11 16Z" clip-rule="evenodd"/>
 <path fill="#E6DDFF" fill-rule="evenodd" d="M11 15C13.2091 15 15 13.2091 15 11C15 8.79086 13.2091 7 11 7C8.79086 7 7 8.79086 7 11C7 13.2091 8.79086 15 11 15ZM9.57143 10.6429C10.1632 10.6429 10.6429 10.1632 10.6429 9.57143C10.6429 8.97969 10.1632 8.5 9.57143 8.5C8.9797 8.5 8.5 8.97969 8.5 9.57143C8.5 10.1632 8.9797 10.6429 9.57143 10.6429ZM9.57143 13.5C10.1632 13.5 10.6429 13.0203 10.6429 12.4286C10.6429 11.8368 10.1632 11.3571 9.57143 11.3571C8.9797 11.3571 8.5 11.8368 8.5 12.4286C8.5 13.0203 8.9797 13.5 9.57143 13.5ZM13.5 11C13.5 11.5917 13.0203 12.0714 12.4286 12.0714C11.8368 12.0714 11.3571 11.5917 11.3571 11C11.3571 10.4083 11.8368 9.92857 12.4286 9.92857C13.0203 9.92857 13.5 10.4083 13.5 11Z" clip-rule="evenodd"/>
</svg>
